public/logo-white.svg

<svg width="48" height="48" viewBox="0 0 48 48" fill="none" xmlns="http://www.w3.org/2000/svg">
<path d="M10.899 48C13.81 48 16.547 46.866 18.606 44.808L27.807 35.607C29.866 33.548 31 30.811 31 27.899C31 23.074 27.902 18.885 23.292 17.475L22.708 19.387C26.472 20.539 29 23.959 29 27.899C29 30.276 28.074 32.511 26.394 34.192L17.193 43.393C15.512 45.074 13.276 46 10.899 46C5.992 46 2 42.008 2 37.101C2 34.724 2.926 32.489 4.606 30.808L13.807 21.607C14.098 21.316 14.411 21.044 14.737 20.798L13.532 19.201C13.134 19.502 12.75 19.835 12.393 20.192L3.192 29.393C1.134 31.452 0 34.189 0 37.101C0 43.11 4.89 48 10.899 48Z" fill="white"/>
<path d="M37.1011 0C34.1901 0 31.4531 1.134 29.3941 3.192L20.1931 12.393C18.1341 14.452 17.0001 17.189 17.0001 20.101C17.0001 25.309 20.7051 29.808 25.8101 30.8L26.1911 28.837C22.0251 28.027 19.0011 24.354 19.0011 20.101C19.0011 17.724 19.9271 15.489 21.6071 13.808L30.8081 4.607C32.4881 2.926 34.7241 2 37.1011 2C42.0081 2 46.0001 5.992 46.0001 10.899C46.0001 13.276 45.0741 15.511 43.3941 17.192L34.1941 26.393C33.9351 26.651 33.6641 26.892 33.3851 27.109L34.6151 28.685C34.9571 28.418 35.2911 28.123 35.6061 27.808L44.8071 18.607C46.8661 16.548 48.0001 13.811 48.0001 10.899C48.0001 4.89 43.1101 0 37.1011 0Z" fill="white"/>
<path d="M3.2147 15H9.64399V13.4293H5.08844V4.65656H3.2147V15Z" fill="white"/>
<path d="M38.7702 43.4445H45.1995V41.8738H40.644V33.101H38.7702V43.4445Z" fill="white"/>
</svg>

<svg xmlns="http://www.w3.org/2000/svg" width="48" height="48" fill="#fff" xmlns:v="https://vecta.io/nano"><path d="M10.899 48a10.83 10.83 0 0 0 7.707-3.192l9.201-9.201A10.83 10.83 0 0 0 31 27.899a10.84 10.84 0 0 0-7.708-10.424l-.584 1.912A8.85 8.85 0 0 1 29 27.899c0 2.377-.926 4.612-2.606 6.293l-9.201 9.201C15.512 45.074 13.276 46 10.899 46A8.91 8.91 0 0 1 2 37.101c0-2.377.926-4.612 2.606-6.293l9.201-9.201a8.91 8.91 0 0 1 .93-.809l-1.205-1.597a11 11 0 0 0-1.139.991l-9.201 9.201A10.83 10.83 0 0 0 0 37.101C0 43.11 4.89 48 10.899 48zM37.101 0a10.83 10.83 0 0 0-7.707 3.192l-9.201 9.201A10.83 10.83 0 0 0 17 20.101c0 5.208 3.705 9.707 8.81 10.699l.381-1.963a8.91 8.91 0 0 1-7.19-8.736c0-2.377.926-4.612 2.606-6.293l9.201-9.201A8.84 8.84 0 0 1 37.101 2 8.91 8.91 0 0 1 46 10.899c0 2.377-.926 4.612-2.606 6.293l-9.2 9.201a8.86 8.86 0 0 1-.809.716l1.23 1.576a10.85 10.85 0 0 0 .991-.877l9.201-9.201A10.83 10.83 0 0 0 48 10.899C48 4.89 43.11 0 37.101 0zM3.215 15h6.429v-1.571H5.088V4.657H3.215V15zM38.77 43.445h6.43v-1.571h-4.556v-8.773H38.77v10.343z"/></svg>
